X:25
T:Petite Marguerite
R:Bourre  trois temps
A:Massif Central
O:France
M:3/4
K:F
G/2A/2BA|GG/2A/2c|B2A|GF2|
G/2A/2BA|GG/2A/2c|B2A|G3:|
|:G/2A/2BA|FG/2A/2G|F2E|FG2|
G/2A/2BA|FG/2
